X: 1912
T: Sydney Flash
B: australian traditional tunes wiki
M:2/4
L:1/16
Q: 1/4=100
K:D
V:1 
A2||"D"d4 f3e|d3e d3B|A3B A3G|F3E D3D|D3F F3A|"Em"B3c e3d|"A7"c3A B3c|"D"d3c B3A|
"D"d4 f3e|d3e d3B|A3B A3G|F3E D3D|D3F F3A|"Em"B3c e3d|"A7"c3A B3c|"D"d8||
||"D"f4f2f2|A2c2 d2f2|"G"g2ag g2g2|"A7"A8|"D"f4f2f2|A2c2 d2f2|"A7"e2d2 c2B2|A8|
"D"f4f2f2|A2c2 d2f2|"G"g2ag g2g2|"D"f2e2 d2B2|A2c2 d2f2|"A7"g2e2 c2A2|"D".d4 .f4|.d6z2||
% abcbook-tune_id 6342d53acd396069906186ea


% abcbook-boost 0
% abcbook-tablature 
% abcbook-transpose 
% abcbook-lastupdated 1665324392427
% abcbook-soundfonts 
% abcbook-repeats 1
% NFF Book 2013

